assets/svg/fa-question-circle.svg

<svg xmlns="http://www.w3.org/2000/svg" width="100%" height="100%" viewBox="0 0 512 512"><path fill="currentColor" d="M256 8c137 0 248 111.1 248 248 0 137-111 248-248 248s-248-111-248-248c0-136.9 111-248 248-248zM256 456c110.6 0 200-89.5 200-200 0-110.5-89.5-200-200-200-110.5 0-200 89.5-200 200 0 110.6 89.5 200 200 200zM363.2 200.8c0 67.1-72.4 68.1-72.4 92.9v6.3c0 6.6-5.4 12-12 12h-45.6c-6.6 0-12-5.4-12-12v-8.7c0-35.7 27.1-50 47.6-61.5 17.6-9.8 28.3-16.5 28.3-29.6 0-17.2-22-28.7-39.8-28.7-23.2 0-33.9 11-48.9 30-4.1 5.1-11.5 6.1-16.7 2.1l-27.8-21.1c-5.1-3.9-6.3-11.1-2.6-16.4 23.6-34.7 53.7-54.2 100.6-54.2 49.1 0 101.5 38.3 101.5 88.8zM298 368c0 23.2-18.8 42-42 42s-42-18.8-42-42 18.8-42 42-42 42 18.8 42 42z" /></svg>

<svg xmlns="http://www.w3.org/2000/svg" width="100%" height="100%" viewBox="0 0 512 512"><path fill="currentColor" d="M256 8C119 8 8 119.1 8 256 8 393 119 504 256 504S504 393 504 256C504 119.1 393 8 256 8zM256 456C145.5 456 56 366.6 56 256 56 145.5 145.5 56 256 56 366.5 56 456 145.5 456 256 456 366.5 366.6 456 256 456zM363.2 200.8C363.2 267.9 290.8 268.9 290.8 293.7V300C290.8 306.6 285.5 312 278.8 312H233.2C226.5 312 221.2 306.6 221.2 300V291.3C221.2 255.6 248.3 241.3 268.8 229.8 286.3 220 297.1 213.3 297.1 200.2 297.1 183 275.1 171.6 257.3 171.6 234.1 171.6 223.4 182.5 208.4 201.5 204.3 206.6 196.9 207.6 191.7 203.6L163.9 182.5C158.8 178.7 157.6 171.5 161.2 166.2 184.8 131.5 214.9 112 261.8 112 310.9 112 363.2 150.3 363.2 200.8zM298 368C298 391.2 279.2 410 256 410S214 391.2 214 368 232.8 326 256 326 298 344.8 298 368z" /></svg>
